X:1
T:Title
L:1/8
M:4/4
K:C
V:1 treble nm="Grand Piano"
V:1
 z4 z2 z[Q:1/4=100] E- | E E2 F G2 FE | z F G2 FE z E- | EBAB AG A2 | G F3- F2- F/ z/ D- | %5
 D D2 E F3 E- | ED B2 B3 B- | B B2 G GF G2 | F E3- E2 E2 | B A2 B AG A2 | G F3- F2- F/ z/ D- | %11
 D D2 E- EFED | B6- BA- | ABAB AG A2 | G F3- F2- F/ z/ F- | F F2 A- A F2 G | E8 |] %17

